X:8
T:Indian Queen,The. JMP.008
T:Quick Step London[?derry],A. JMP.008
M:2/4
L:1/8
Q:1/2=90
C:â€11..Quickstep..Londonderryâ€
S:John Miller MS. Perth, 1799.(for the fife)
R:.March
O:Scotland
A:Perth
N:John Miller his Book â€“ written at side of page
N:Key given as G major but that feels very wrong.
N:1 â€“ correction made here in MS â€“ bar line is between
N:f and b and next bar squeezed in
N:2 â€“ bar almost illegible
H:1799
Z:vmp.C. Graebe
K:D major
â€œ_See note re keyâ€DDDE | FEFA | BABd | ABAf | eddf |!
eddA | Bd (c/B/)(A/G/) |F3 E | DDDE | FEFA |!
BABd | ABAf | eddf | eddA | Bdce | d2â€³crâ€d :|!
|:a/f/ | ddcd | ef/g/ fa/f/ | ddcd | ef/g/ f2 | â€œ1â€ffb2 |!
ge a2 |fd (d/c/)(d/f/) | (e/d/)(c/B/) (A/G/)(F/E/) | DDDE | FEFA |!
â€œ2â€BABd | ABAf | eddf | eddA | Bdce | d2â€³ crâ€d ğŸ˜

